X:495
T: Xiao kanxi
N: C1156
O: China,Heilongjiang, Jilin, Liaoning
S: Zhongguo Minge Xuan, S. 191]
N: Vor-und Nachspiel, glissandi ausgelassen.
R: Tanzlied, Xiaodiao]
M: 2/4
L: 1/16
K: D
d2e2d2B2 | BFA4A2 | F2FAE2F2 | A4z4
A2F2A2AB | d2d2B2A2 | FAFABABd | A4d2F2
E3FA2A2 | d2d2F2E2 | D2D4E2 | D8
F2A2F2A2 | d2d2d2d2 | B2e2c2B2 | A4B2F2
E3FA2A2 | d2d2F2E2 | D2D4E2 | D8

